docs/images/clip.svg

<?xml version="1.0" encoding="utf-8"?>
<!-- Generator: Adobe Illustrator 19.1.0, SVG Export Plug-In . SVG Version: 6.00 Build 0)  -->
<svg version="1.1" id="Layer_1" xmlns="http://www.w3.org/2000/svg" xmlns:xlink="http://www.w3.org/1999/xlink" x="0px" y="0px"
	 viewBox="0 0 64 64" enable-background="new 0 0 64 64" xml:space="preserve">
<g id="Videoclip">
	<path stroke="#FFF0BB" fill="#FFF0BB" d="M64.0163498,25.9999504c0-0.0300007-0.0146027-0.0550995-0.0171013-0.0844002V8.9140501
		c0-3.8169003-3.0643997-6.9219003-6.8309975-6.9219003H6.8147507c-3.7665999,0-6.8311,3.105-6.8311,6.9219003v46.1718979
		c0,3.8169022,3.0644999,6.9219017,6.8311,6.9219017H57.168251c3.7665977,0,6.8309975-3.1049995,6.8309975-6.9219017V26.0844498
		C64.0017471,26.0551491,64.0163498,26.0300503,64.0163498,25.9999504z M11.9836502,35.9750519H1.9992508v-8.950201h9.9843998
		V35.9750519z M11.9836502,24.97505H1.9992508v-8.9501991h9.9843998V24.97505z M1.9992508,38.0248489h9.9843998v8.9502029H1.9992508
		V38.0248489z M13.9992504,48.0844498c0.0024996-0.0293007,0.0171003-0.0544014,0.0171003-0.0844994
		c0-0.0299988-0.0146008-0.0550995-0.0171003-0.0844002V37.0844498c0.0024996-0.0293007,0.0171003-0.0544014,0.0171003-0.0844994
		c0-0.0299988-0.0146008-0.0550995-0.0171003-0.0844002V26.0844498c0.0024996-0.0293007,0.0171003-0.0543995,0.0171003-0.0844994
		c0-0.0300007-0.0146008-0.0550995-0.0171003-0.0844002V15.0844498c0.0024996-0.0292997,0.0171003-0.0543995,0.0171003-0.0844994
		c0-0.0300007-0.0146008-0.0551004-0.0171003-0.0844002V4.0078502h35.9843979v10.9076996
		c-0.0023994,0.0292997-0.0171013,0.0543995-0.0171013,0.0844002c0,0.0300999,0.0147018,0.0551996,0.0171013,0.0844994v10.8311005
		c-0.0023994,0.0293007-0.0171013,0.0543995-0.0171013,0.0844002c0,0.0300999,0.0147018,0.0551987,0.0171013,0.0844994v10.8311005
		c-0.0023994,0.0293007-0.0171013,0.0544014-0.0171013,0.0844002c0,0.030098,0.0147018,0.0551987,0.0171013,0.0844994v10.8311005
		c-0.0023994,0.0293007-0.0171013,0.0544014-0.0171013,0.0844002c0,0.030098,0.0147018,0.0551987,0.0171013,0.0844994v11.9076996
		H13.9992504V48.0844498z M51.9992485,27.0248508h9.9844017v8.950201h-9.9844017V27.0248508z M51.9992485,24.97505v-8.9501991
		h9.9844017V24.97505H51.9992485z M51.9992485,38.0248489h9.9844017v8.9502029h-9.9844017V38.0248489z M61.9836502,8.9140501
		V13.97505h-9.9844017V4.0078502h5.1690025C59.8235512,4.0078502,61.9836502,6.2084498,61.9836502,8.9140501z M6.8147507,4.0078502
		h5.1688995V13.97505H1.9992508V8.9140501C1.9992508,6.2084498,4.1594648,4.0078502,6.8147507,4.0078502z M1.9992508,55.0859489
		v-6.0611h9.9843998v10.9673004H6.8147507C4.1594648,59.9921494,1.9992508,57.7914505,1.9992508,55.0859489z M57.168251,59.9921494
		h-5.1690025V49.0248489h9.9844017v6.0611C61.9836502,57.7914505,59.8235512,59.9921494,57.168251,59.9921494z"/>
	<path stroke="#FFF0BB" fill="#FFF0BB" d="M42.4289513,31.1249504l-16.0000019-8c-0.3031998-0.1508007-0.6625996-0.1347008-0.9515991,0.0429993
		c-0.2886009,0.1781998-0.4638863,0.4932003-0.4638863,0.8320007v16c0,0.3388977,0.1752853,0.653801,0.4638863,0.8320999
		c0.1571999,0.0970993,0.3353996,0.1459999,0.5141144,0.1459999c0.1493855,0,0.2992859-0.0341988,0.4374847-0.1030998l16.0000019-8
		c0.3310966-0.1660004,0.5405998-0.5044022,0.5405998-0.875C42.9695511,31.6293507,42.7600479,31.29105,42.4289513,31.1249504z
		 M26.9695492,38.41745V25.58255l12.8349171,6.4174004L26.9695492,38.41745z"/>
</g>
</svg>

<svg xmlns="http://www.w3.org/2000/svg" viewBox="0 0 64 64"><g stroke="#FFF0BB" fill="#FFF0BB"><path d="M64.016 26c0-.03-.014-.055-.017-.084V8.914c0-3.817-3.064-6.922-6.83-6.922H6.814c-3.767 0-6.831 3.105-6.831 6.922v46.172c0 3.817 3.064 6.922 6.83 6.922h50.354c3.767 0 6.831-3.105 6.831-6.922V26.084c.003-.029.017-.054.017-.084zm-52.032 9.975H1.999v-8.95h9.985v8.95zm0-11H1.999v-8.95h9.985v8.95zm-9.985 13.05h9.985v8.95H1.999v-8.95zm12 10.06c.003-.03.017-.055.017-.085 0-.03-.014-.055-.017-.084V37.084c.003-.029.017-.054.017-.084 0-.03-.014-.055-.017-.084V26.084c.003-.029.017-.054.017-.084 0-.03-.014-.055-.017-.084V15.084c.003-.029.017-.054.017-.084 0-.03-.014-.055-.017-.084V4.008h35.985v10.908c-.003.029-.017.054-.017.084 0 .03.014.055.017.084v10.832c-.003.029-.017.054-.017.084 0 .03.014.055.017.084v10.832c-.003.029-.017.054-.017.084 0 .03.014.055.017.084v10.832c-.003.029-.017.054-.017.084 0 .03.014.055.017.084v11.908H13.999V48.084zm38-21.06h9.985v8.95h-9.985v-8.95zm0-2.05v-8.95h9.985v8.95h-9.985zm0 13.05h9.985v8.95h-9.985v-8.95zm9.985-29.11v5.06h-9.985V4.008h5.17c2.655 0 4.815 2.2 4.815 4.906zM6.814 4.007h5.17v9.967H1.999v-5.06c0-2.707 2.16-4.907 4.816-4.907zM2 55.086v-6.061h9.985v10.967h-5.17C4.16 59.992 2 57.792 2 55.086zm55.17 4.906H52V49.025h9.985v6.06c0 2.706-2.16 4.907-4.816 4.907z"/><path d="M42.429 31.125l-16-8a.978.978 0 0 0-1.415.875v16a.978.978 0 0 0 1.415.875l16-8a.979.979 0 0 0 0-1.75zm-15.46 7.292V25.583L39.805 32 26.97 38.417z"/></g></svg>
